Origami/16x16/apps/nip2.svg

<svg width="16" height="16" version="1" xmlns="http://www.w3.org/2000/svg">
 <path d="m0.8 0.99999994c-0.4432 0-0.8 0.34688886-0.8 0.77777776v9.3333333 3.111111c0 0.430889 0.3568 0.777778 0.8 0.777778h14.4c0.4432 0 0.8-0.346889 0.8-0.777778v-3.111111-9.3333333c0-0.4308889-0.3568-0.77777776-0.8-0.77777776h-14.4z" style="fill:#cccccc"/>
 <rect x="2" y="3" width="12" height="10" style="fill:#494949"/>
 <path d="m2 8s1.0588235-1 2.4705882-1c1.4117646 0 2.5141527 1.0239214 3.8823528 1 1.3682-0.0239202 2.470588-3 3.529412-3 1.058823 0 2.117647 1 2.117647 1v7h-12z" style="fill:#4966ff"/>
 <path d="m2 9.3333333s0.3529412 1.6666667 1.0588235 1.6666667 1.7647058-2 3.1764705-2c1.4117646 0 3.5294116 2 4.588235 2 1.058824 0 3.176471-1.6666667 3.176471-1.6666667v3.6666667h-12z" style="fill:#19c171"/>
</svg>

<svg xmlns="http://www.w3.org/2000/svg" width="16" height="16" version="1">
 <path style="fill:#cccccc" d="m 0.8,0.99999994 c -0.4432,0 -0.8,0.34688886 -0.8,0.77777776 l 0,9.3333333 0,3.111111 C 0,14.653111 0.3568,15 0.8,15 l 14.4,0 c 0.4432,0 0.8,-0.346889 0.8,-0.777778 l 0,-3.111111 0,-9.3333333 C 16,1.3468888 15.6432,0.99999994 15.2,0.99999994 l -14.4,0 z"/>
 <rect style="fill:#494949" width="12" height="10" x="2" y="3"/>
 <path style="fill:#4966ff" d="M 2,8 C 2,8 3.0588235,7 4.4705882,7 5.8823528,7 6.9847409,8.0239214 8.352941,8 9.721141,7.9760798 10.823529,5 11.882353,5 12.941176,5 14,6 14,6 l 0,7 -12,0 z"/>
 <path style="fill:#19c171" d="M 2,9.3333333 C 2,9.3333333 2.3529412,11 3.0588235,11 3.7647058,11 4.8235293,9 6.235294,9 7.6470586,9 9.7647056,11 10.823529,11 11.882353,11 14,9.3333333 14,9.3333333 L 14,13 2,13 Z"/>
</svg>
